images/youtube.svg

<svg fill="none" height="37" viewBox="0 0 42 37" width="42" xmlns="http://www.w3.org/2000/svg" xmlns:xlink="http://www.w3.org/1999/xlink"><filter id="a" color-interpolation-filters="sRGB" filterUnits="userSpaceOnUse" height="42" width="42" x="0" y="0"><feFlood flood-opacity="0" result="BackgroundImageFix"/><feColorMatrix in="SourceAlpha" result="hardAlpha" type="matrix" values="0 0 0 0 0 0 0 0 0 0 0 0 0 0 0 0 0 0 127 0"/><feOffset dy="4"/><feGaussianBlur stdDeviation="2"/><feComposite in2="hardAlpha" operator="out"/><feColorMatrix type="matrix" values="0 0 0 0 0 0 0 0 0 0 0 0 0 0 0 0 0 0 0.25 0"/><feBlend in2="BackgroundImageFix" mode="normal" result="effect1_dropShadow_149_368"/><feBlend in="SourceGraphic" in2="effect1_dropShadow_149_368" mode="normal" result="shape"/></filter><g filter="url(#a)"><path d="m37.6613 10.2s-.332-2.34409-1.3547-3.37339c-1.2949-1.35469-2.7425-1.36133-3.4066-1.44101-4.7547-.34532-11.8934-.34532-11.8934-.34532h-.0132s-7.1387 0-11.8934.34532c-.66406.07968-2.11172.08632-3.40664 1.44101-1.02266 1.0293-1.34805 3.37339-1.34805 3.37339s-.34531 2.7559-.34531 5.5051v2.5766c0 2.7492.33867 5.5051.33867 5.5051s.33203 2.3441 1.34805 3.3734c1.29492 1.3547 2.99492 1.3082 3.75195 1.4543 2.72263.259 11.56133.3387 11.56133.3387s7.1453-.0133 11.9-.352c.6641-.0797 2.1117-.0863 3.4066-1.441 1.0227-1.0293 1.3547-3.3734 1.3547-3.3734s.3387-2.7493.3387-5.5051v-2.5766c0-2.7492-.3387-5.5051-.3387-5.5051zm-20.1742 11.2094v-9.5558l9.184 4.7945z" fill="#002922"/></g></svg>

<svg width="42" height="37" viewBox="0 0 42 37" fill="none" xmlns="http://www.w3.org/2000/svg">
<g filter="url(#filter0_d_149_368)">
<path d="M37.6613 10.2C37.6613 10.2 37.3293 7.85591 36.3066 6.82661C35.0117 5.47192 33.5641 5.46528 32.9 5.3856C28.1453 5.04028 21.0066 5.04028 21.0066 5.04028H20.9934C20.9934 5.04028 13.8547 5.04028 9.1 5.3856C8.43594 5.46528 6.98828 5.47192 5.69336 6.82661C4.6707 7.85591 4.34531 10.2 4.34531 10.2C4.34531 10.2 4 12.9559 4 15.7051V18.2817C4 21.0309 4.33867 23.7868 4.33867 23.7868C4.33867 23.7868 4.6707 26.1309 5.68672 27.1602C6.98164 28.5149 8.68164 28.4684 9.43867 28.6145C12.1613 28.8735 21 28.9532 21 28.9532C21 28.9532 28.1453 28.9399 32.9 28.6012C33.5641 28.5215 35.0117 28.5149 36.3066 27.1602C37.3293 26.1309 37.6613 23.7868 37.6613 23.7868C37.6613 23.7868 38 21.0375 38 18.2817V15.7051C38 12.9559 37.6613 10.2 37.6613 10.2ZM17.4871 21.4094V11.8536L26.6711 16.6481L17.4871 21.4094Z" fill="#002922"/>
</g>
<defs>
<filter id="filter0_d_149_368" x="0" y="0" width="42" height="42" filterUnits="userSpaceOnUse" color-interpolation-filters="sRGB">
<feFlood flood-opacity="0" result="BackgroundImageFix"/>
<feColorMatrix in="SourceAlpha" type="matrix" values="0 0 0 0 0 0 0 0 0 0 0 0 0 0 0 0 0 0 127 0" result="hardAlpha"/>
<feOffset dy="4"/>
<feGaussianBlur stdDeviation="2"/>
<feComposite in2="hardAlpha" operator="out"/>
<feColorMatrix type="matrix" values="0 0 0 0 0 0 0 0 0 0 0 0 0 0 0 0 0 0 0.25 0"/>
<feBlend mode="normal" in2="BackgroundImageFix" result="effect1_dropShadow_149_368"/>
<feBlend mode="normal" in="SourceGraphic" in2="effect1_dropShadow_149_368" result="shape"/>
</filter>
</defs>
</svg>
